X: 1
T: the Maid on the Green
R: jig
Z: 2009 John Chambers <jc:trillian.mit.edu>
S: printed MS of unknown origin (page 34)
M: 6/8
L: 1/8
K: G
d \
| "G"gfg "C"e2d | "G"Bee dBA | "G"BGG dBG | "D7"FBA A2d \
| "G"gfg "C"e2d | "Em"Bee "G"dBG | "Em"Bee "G"dBG | "D7"BAG "G"G2 "fine"y:|
g \
| "G"gfg "D"afd | "G"gfg "D"a2a | "G"bgg "D"aff | "D"gfa "G"g2a \
| "G"bgg "D"aff | "Em"gfg e2d | "Em"Bee "G"dBG | "D"BGG "G"GB "d.C"y|]
